X: 100415
T: COMMON SCHOTTISCHE (Dewdrop)
R: shottish
B: K\"ohler's Violin Repository, v.3, 1885 p.268 #1
F: http://www.archive.org/details/klersviolinrepos03rugg
Z: 2012 John Chambers <jc:trillian.mit.edu>
M: C|
L: 1/8
K: D
(vF>G) |\
A>BA^G A2d2 | A>BA^G A2f2 | ((3fed (3cBA) G2E2 | ((3cBA (3GFE) F2D2 |\
A>BA^G A2d2 | A>BA^G A2f2 | f>eg>e cBAc | dzdzdz H:|
K: A
|: z2 |\
va2e>a g2d>g | eEAc e2(dc) | BEGB dBGE | AEcA e^efg |\
a2e>a g2d>f | eEAc e2(dc) | BAGF EdcB | A2a2 a2 "_D.C.":|
K: G
"Trio."|: z2 |\
G2D>G B2G>B | dBgf edcB | A2E>A c2A>c | fed^c fe=cA |\
G2D>G B2G>B | eBgf edcB | A2EA GFEF | G2G2 G2 "_D.C.":|

%%sep 2 1 500

